icons/svgs/van-shuttle-outline.svg

<svg width="24" height="24" viewBox="0 0 24 24" fill="none" xmlns="http://www.w3.org/2000/svg">
<path d="M1.8 5.75V9.5H6.6V5.125H2.4C2.0625 5.125 1.8 5.4375 1.8 5.75ZM1.8 11.375V14.5C1.8 14.8516 2.0625 15.125 2.4 15.125H2.85C3.4875 14.0312 4.65 13.25 6 13.25C7.3125 13.25 8.475 14.0312 9.1125 15.125H14.85C15.4875 14.0312 16.65 13.25 18 13.25C19.3125 13.25 20.475 14.0312 21.1125 15.125H21.6C21.9 15.125 22.2 14.8516 22.2 14.5V11.375H13.5H7.5H1.8ZM8.4 9.5H12.6V5.125H8.4V9.5ZM14.4 9.5H21.15L17.6625 5.24219C17.5875 5.16406 17.5125 5.125 17.4375 5.125H14.4V9.5ZM24 14.5C24 15.9062 22.9125 17 21.6 17C21.6 19.0703 19.9875 20.75 18 20.75C16.0125 20.75 14.4 19.0703 14.4 17H9.6C9.6 19.0703 7.9875 20.75 6 20.75C4.0125 20.75 2.4 19.0703 2.4 17C1.05 17 0 15.9062 0 14.5V5.75C0 4.38281 1.05 3.25 2.4 3.25H7.5H13.5H17.4375C18.0375 3.25 18.6375 3.5625 19.0125 4.03125L23.475 9.5C23.8125 9.89062 24 10.3984 24 10.9062V14.5ZM19.8 17C19.8 16.3359 19.425 15.75 18.9 15.3984C18.3375 15.0469 17.625 15.0469 17.1 15.3984C16.5375 15.75 16.2 16.3359 16.2 17C16.2 17.7031 16.5375 18.2891 17.1 18.6406C17.625 18.9922 18.3375 18.9922 18.9 18.6406C19.425 18.2891 19.8 17.7031 19.8 17ZM6 18.875C6.6375 18.875 7.2 18.5234 7.5375 17.9375C7.875 17.3906 7.875 16.6484 7.5375 16.0625C7.2 15.5156 6.6375 15.125 6 15.125C5.325 15.125 4.7625 15.5156 4.425 16.0625C4.0875 16.6484 4.0875 17.3906 4.425 17.9375C4.7625 18.5234 5.325 18.875 6 18.875Z" fill="black"/>
</svg>

<svg xmlns="http://www.w3.org/2000/svg" width="24" height="24" fill="currentColor" class="icon-van-shuttle-outline" viewBox="0 0 24 24">
  <mask id="a" width="24" height="18" x="0" y="3" maskUnits="userSpaceOnUse" style="mask-type:alpha">
    <path d="M1.8 5.75V9.5h4.8V5.125H2.4c-.337 0-.6.313-.6.625m0 5.625V14.5c0 .352.262.625.6.625h.45c.637-1.094 1.8-1.875 3.15-1.875 1.313 0 2.475.781 3.113 1.875h5.737c.638-1.094 1.8-1.875 3.15-1.875 1.313 0 2.475.781 3.113 1.875h.487c.3 0 .6-.273.6-.625v-3.125zM8.4 9.5h4.2V5.125H8.4zm6 0h6.75l-3.487-4.258q-.113-.117-.226-.117H14.4zm9.6 5c0 1.406-1.087 2.5-2.4 2.5 0 2.07-1.613 3.75-3.6 3.75s-3.6-1.68-3.6-3.75H9.6c0 2.07-1.612 3.75-3.6 3.75S2.4 19.07 2.4 17C1.05 17 0 15.906 0 14.5V5.75c0-1.367 1.05-2.5 2.4-2.5h15.038c.6 0 1.2.313 1.575.781L23.475 9.5c.337.39.525.898.525 1.406zM19.8 17c0-.664-.375-1.25-.9-1.602-.562-.351-1.275-.351-1.8 0-.562.352-.9.938-.9 1.602 0 .703.338 1.29.9 1.64.525.352 1.237.352 1.8 0 .525-.35.9-.937.9-1.64M6 18.875c.638 0 1.2-.352 1.537-.937.338-.547.338-1.29 0-1.875-.337-.547-.9-.938-1.537-.938-.675 0-1.237.39-1.575.938-.337.585-.337 1.328 0 1.875.338.585.9.937 1.575.937"/>
  </mask>
  <g mask="url(#a)">
    <path d="M0 0h24v24H0z"/>
  </g>
</svg>
